public/assets/icons/figmaIcon.svg

<?xml version="1.0" encoding="UTF-8" standalone="no"?>
<!-- Uploaded to: SVG Repo, www.svgrepo.com, Transformed by: SVG Repo Mixer Tools -->

<svg
   width="400"
   height="600"
   viewBox="0 0 16 24"
   fill="none"
   version="1.1"
   id="svg408"
   sodipodi:docname="figmaIcon.svg"
   xmlns:inkscape="http://www.inkscape.org/namespaces/inkscape"
   xmlns:sodipodi="http://sodipodi.sourceforge.net/DTD/sodipodi-0.dtd"
   xmlns="http://www.w3.org/2000/svg"
   xmlns:svg="http://www.w3.org/2000/svg">
  <defs
     id="defs412" />
  <sodipodi:namedview
     id="namedview410"
     pagecolor="#ffffff"
     bordercolor="#000000"
     borderopacity="0.25"
     inkscape:showpageshadow="2"
     inkscape:pageopacity="0.0"
     inkscape:pagecheckerboard="0"
     inkscape:deskcolor="#d1d1d1"
     showgrid="false" />
  <g
     id="SVGRepo_iconCarrier"
     transform="translate(-8,-4)">
    <path
       fill-rule="evenodd"
       clip-rule="evenodd"
       d="m 16,16 c 0,-2.2091 1.7909,-4 4,-4 2.2091,0 4,1.7909 4,4 0,2.2091 -1.7909,4 -4,4 -2.2091,0 -4,-1.7909 -4,-4 z"
       fill="#1abcfe"
       id="path397" />
    <path
       fill-rule="evenodd"
       clip-rule="evenodd"
       d="m 8,24 c 0,-2.2091 1.79086,-4 4,-4 h 4 v 4 c 0,2.2091 -1.7909,4 -4,4 -2.20914,0 -4,-1.7909 -4,-4 z"
       fill="#0acf83"
       id="path399" />
    <path
       fill-rule="evenodd"
       clip-rule="evenodd"
       d="m 16,4 v 8 h 4 c 2.2091,0 4,-1.7909 4,-4 0,-2.20914 -1.7909,-4 -4,-4 z"
       fill="#ff7262"
       id="path401" />
    <path
       fill-rule="evenodd"
       clip-rule="evenodd"
       d="m 8,8 c 0,2.2091 1.79086,4 4,4 h 4 V 4 H 12 C 9.79086,4 8,5.79086 8,8 Z"
       fill="#f24e1e"
       id="path403" />
    <path
       fill-rule="evenodd"
       clip-rule="evenodd"
       d="m 8,16 c 0,2.2091 1.79086,4 4,4 h 4 v -8 h -4 c -2.20914,0 -4,1.7909 -4,4 z"
       fill="#a259ff"
       id="path405" />
  </g>
</svg>

<!DOCTYPE svg PUBLIC "-//W3C//DTD SVG 1.1//EN" "http://www.w3.org/Graphics/SVG/1.1/DTD/svg11.dtd">
<!-- Uploaded to: SVG Repo, www.svgrepo.com, Transformed by: SVG Repo Mixer Tools -->
<svg width="800px" height="800px" viewBox="0 0 32 32" fill="none" xmlns="http://www.w3.org/2000/svg">
<g id="SVGRepo_bgCarrier" stroke-width="0"/>
<g id="SVGRepo_tracerCarrier" stroke-linecap="round" stroke-linejoin="round"/>
<g id="SVGRepo_iconCarrier"> <path fill-rule="evenodd" clip-rule="evenodd" d="M16 16C16 13.7909 17.7909 12 20 12C22.2091 12 24 13.7909 24 16C24 18.2091 22.2091 20 20 20C17.7909 20 16 18.2091 16 16Z" fill="#1ABCFE"/> <path fill-rule="evenodd" clip-rule="evenodd" d="M8 24C8 21.7909 9.79086 20 12 20H16V24C16 26.2091 14.2091 28 12 28C9.79086 28 8 26.2091 8 24Z" fill="#0ACF83"/> <path fill-rule="evenodd" clip-rule="evenodd" d="M16 4V12H20C22.2091 12 24 10.2091 24 8C24 5.79086 22.2091 4 20 4H16Z" fill="#FF7262"/> <path fill-rule="evenodd" clip-rule="evenodd" d="M8 8C8 10.2091 9.79086 12 12 12H16V4H12C9.79086 4 8 5.79086 8 8Z" fill="#F24E1E"/> <path fill-rule="evenodd" clip-rule="evenodd" d="M8 16C8 18.2091 9.79086 20 12 20H16V12H12C9.79086 12 8 13.7909 8 16Z" fill="#A259FF"/> </g>
</svg>
